!!!COM: Beethoven
!!!OTL: 7 Variations on a Quartet by Winter
!!!Variation: Variation 1 f
**function	**harm	**kern	**kern
*	*	*clefF4	*clefG2
*	*	*k[b-]	*k[b-]
*M2/4	*M2/4	*M2/4	*M2/4
*F:	*F:	*F:	*F:
=90	=90	=90	=90
2T	2V7	8C 8G 8B-	16r
.	.	.	(16bLL
.	.	8r	16dd
.	.	.	16ccJJ)
.	.	8C 8G 8B-	16r
.	.	.	(16dd#LL
.	.	8r	16ee
.	.	.	16ccJJ)
=91	=91	=91	=91
2T	2Ic	8C 8F 8A	16r
.	.	.	(16eeLL
.	.	8r	16ff
.	.	.	16ccJJ)
.	.	8C 8F 8A	16r
.	.	.	(16gg#LL
.	.	8r	16aa
.	.	.	16ccJJ)
=92	=92	=92	=92
2T	2V7	8C 8E 8G	16r
.	.	.	(16bbLL
.	.	8r	16ccc
.	.	.	16ccJJ)
.	.	8C 8E 8G	16r
.	.	.	(16aaLL
.	.	8r	16bb-
.	.	.	16ccJJ)
=93	=93	=93	=93
2T	2I	8F 8A	16r
.	.	.	(16gg#LL
.	.	8r	16bb-
.	.	.	16aaJJ
.	.	4r	16ggLL
.	.	.	16ff
.	.	.	16ee
.	.	.	16ddJJ)
*	*	*clefG2	*
=94	=94	=94	=94
2T	2V7	8c 8g 8b-	16r
.	.	.	(16bLL
.	.	8r	16dd
.	.	.	16ccJJ)
.	.	8c 8g 8b-	16r
.	.	.	(16dd#LL
.	.	8r	16ff
.	.	.	16eeJJ)
=95	=95	=95	=95
4T	4I	8f 8a	16r
.	.	.	(16eeLL
.	.	8r	16gg
.	.	.	16ffJJ)
4T	4vi	8d 8f 8a	16r
.	.	.	16gg#LL
.	.	8r	16aa
.	.	.	16ffJJ
=96	=96	=96	=96
4P	4iib	8B- 8d 8g	16r
.	.	.	(16ccc#LL
.	.	8r	16ddd
.	.	.	16ggJJ)
4D	4V7	8c 8g 8b-	16r
.	.	.	(16aaLL
.	.	8r	16bb-
.	.	.	16eeJJ)
=97	=97	=97	=97
4T	4I	8f 8a	16r
.	.	.	(16eeLL
.	.	8r	16ff
.	.	.	16ccJJ)
*	*	*clefF4	*
4T	4V	8C 8E	16r
.	.	.	(16aLL
.	.	8r	16b-
.	.	.	16gJJ)
=98	=98	=98	=98
4T	4I	8FF 8F	8f
.	.	8r	8r
*-	*-	*-	*-
